static/img/logo.svg

<?xml version="1.0" encoding="UTF-8"?>
<svg width="541px" height="105px" viewBox="0 0 541 105" version="1.1" xmlns="http://www.w3.org/2000/svg" xmlns:xlink="http://www.w3.org/1999/xlink">
    <!-- Generator: Sketch 42 (36781) - http://www.bohemiancoding.com/sketch -->
    <title>Group</title>
    <desc>Created with Sketch.</desc>
    <defs></defs>
    <g id="Page-1" stroke="none" stroke-width="1" fill="none" fill-rule="evenodd">
        <g id="Buttercup---Main-Copy-4" transform="translate(-133.000000, -357.000000)">
            <g id="Group" transform="translate(133.000000, 357.000000)">
                <path d="M76,61.8857143 C76,77.0761748 63.6836694,89.3904762 48.4951061,89.3904762 L18.0952785,89.3904762 C8.10153215,89.3904762 0,81.2884156 0,71.292581 L0,25.6952381 C0,11.50415 11.5066737,0 25.692871,0 L29.3166528,0 C43.5064336,0 55.0095238,11.5010297 55.0095238,25.6952381 L55.0095238,35.1567942 C67.0557181,38.0817841 76,48.9368038 76,61.8857143 Z M19.0493235,34.7428571 C13.5255347,34.7428571 9.04761905,30.272784 9.04761905,26.0571429 C9.04761905,16.8641629 16.5022896,9.40952381 25.692871,9.40952381 L29.3166528,9.40952381 C38.5106326,9.40952381 45.9619048,16.8608574 45.9619048,26.0571429 L45.9619048,30.3559892 C45.9619048,30.6114018 45.9619048,30.3559892 45.9619048,30.3559892 C45.9619048,32.7787895 41.4908015,34.7428571 35.9602003,34.7428571 L19.0493235,34.7428571 Z M33.2952381,55.8749482 C33.2952381,58.6605125 31.9175072,59.301723 31.9175072,59.301723 C31.1694308,60.1147086 30.4904762,61.592719 30.4904762,62.6940143 L30.4904762,68.8514028 C30.4904762,70.4009703 29.2315896,71.6571429 27.6857143,71.6571429 C26.1366871,71.6571429 24.8809524,70.3987087 24.8809524,68.8514028 L24.8809512,62.6940136 C24.880951,61.6034359 24.2457262,60.0784753 23.4621368,59.3118574 C23.4621368,59.3118574 22.0761905,58.6605125 22.0761905,55.8749482 C22.0761905,52.7986193 24.5876598,50.3047619 27.6857143,50.3047619 C30.7837687,50.3047619 33.2952381,52.7986193 33.2952381,55.8749482 Z" id="Combined-Shape" fill="#24B5AB"></path>
                <path d="M99,7.48829208 L127.080972,7.48829208 C129.794123,7.48829208 132.473319,7.81518223 135.118641,8.46897234 C137.763963,9.12276246 140.120978,10.1894566 142.189755,11.6690869 C144.258533,13.1487172 145.93727,15.0584438 147.226016,17.3983243 C148.514763,19.7382047 149.159127,22.5597828 149.159127,25.8631434 C149.159127,29.9923441 148.006055,33.3988836 145.699877,36.0828641 C143.393698,38.7668446 140.375363,40.693776 136.644781,41.8637162 L136.644781,42.0701752 C138.88313,42.3454552 140.968834,42.9820308 142.901954,43.979921 C144.835074,44.9778112 146.479897,46.2509623 147.836472,47.7994125 C149.193048,49.3478628 150.261335,51.1371563 151.041366,53.1673466 C151.821397,55.197537 152.211406,57.3825396 152.211406,59.72242 C152.211406,63.7139807 151.431387,67.0344965 149.871325,69.6840669 C148.311264,72.3336374 146.259474,74.4670258 143.715895,76.084296 C141.172316,77.7015663 138.255723,78.8542842 134.966027,79.5424844 C131.676332,80.2306845 128.335815,80.5747794 124.944376,80.5747794 L99,80.5747794 L99,7.48829208 Z M111.819574,37.2183886 L123.519979,37.2183886 C127.793192,37.2183886 130.998053,36.3753561 133.134659,34.6892658 C135.271266,33.0031755 136.339553,30.7837634 136.339553,28.0309629 C136.339553,24.8652424 135.237352,22.5081923 133.032917,20.9597421 C130.828482,19.4112918 127.284481,18.6370783 122.40081,18.6370783 L111.819574,18.6370783 L111.819574,37.2183886 Z M111.819574,69.4259932 L123.621721,69.4259932 C125.249612,69.4259932 126.996177,69.3227647 128.861468,69.1163047 C130.726759,68.9098446 132.43941,68.4281118 133.999472,67.6710916 C135.559534,66.9140715 136.848261,65.8301726 137.865693,64.4193623 C138.883124,63.0085521 139.391832,61.0988254 139.391832,58.690125 C139.391832,54.8362043 138.153976,52.1522641 135.678226,50.6382238 C133.202475,49.1241836 129.35325,48.3671748 124.130435,48.3671748 L111.819574,48.3671748 L111.819574,69.4259932 Z M206.278648,80.5747794 L194.679986,80.5747794 L194.679986,72.6261077 L194.476501,72.6261077 C193.323411,75.1036282 191.55989,77.2542213 189.185883,79.0779516 C186.811876,80.9016819 183.590057,81.8135334 179.520331,81.8135334 C176.26455,81.8135334 173.500569,81.2801863 171.228305,80.2134761 C168.956041,79.1467659 167.107735,77.7015674 165.68333,75.877837 C164.258926,74.0541067 163.24151,71.9723326 162.631051,69.6324522 C162.020592,67.2925718 161.715367,64.849498 161.715367,62.3031576 L161.715367,31.0246185 L173.924485,31.0246185 L173.924485,56.1093874 C173.924485,57.4857877 173.992313,59.01701 174.12797,60.7031003 C174.263628,62.3891906 174.619724,63.9720271 175.196268,65.4516574 C175.772813,66.9312876 176.654574,68.1700293 177.841577,69.1679194 C179.028581,70.1658096 180.707318,70.6647472 182.877838,70.6647472 C184.912702,70.6647472 186.625352,70.3206523 188.015842,69.6324522 C189.406332,68.9442521 190.559404,68.0151958 191.475092,66.8452556 C192.390781,65.6753154 193.052101,64.3333453 193.459074,62.8193051 C193.866047,61.3052648 194.06953,59.7224283 194.06953,58.070748 L194.06953,31.0246185 L206.278648,31.0246185 L206.278648,80.5747794 Z M212.323359,41.5540277 L212.323359,31.0246185 L222.395881,31.0246185 L222.395881,16.6757177 L234.604999,16.6757177 L234.604999,31.0246185 L248.035029,31.0246185 L248.035029,41.5540277 L234.604999,41.5540277 L234.604999,63.2322231 C234.604999,65.7097435 235.062836,67.6710844 235.978525,69.1163047 C236.894213,70.5615249 238.708606,71.2841242 241.421757,71.2841242 C242.507017,71.2841242 243.694003,71.163691 244.982749,70.922821 C246.271496,70.6819509 247.288912,70.2862418 248.035029,69.7356817 L248.035029,80.1618614 C246.746282,80.7812415 245.169287,81.2113601 243.303996,81.4522301 C241.438704,81.6931002 239.793881,81.8135334 238.369477,81.8135334 C235.113696,81.8135334 232.451457,81.4522338 230.382679,80.7296236 C228.313901,80.0070135 226.686035,78.9059098 225.499032,77.4262796 C224.312028,75.9466493 223.498095,74.1057416 223.057208,71.9035012 C222.616321,69.7012608 222.395881,67.1549586 222.395881,64.2645181 L222.395881,41.5540277 L212.323359,41.5540277 Z M249.908291,41.5540277 L249.908291,31.0246185 L259.980813,31.0246185 L259.980813,16.6757177 L272.189931,16.6757177 L272.189931,31.0246185 L285.619961,31.0246185 L285.619961,41.5540277 L272.189931,41.5540277 L272.189931,63.2322231 C272.189931,65.7097435 272.647769,67.6710844 273.563457,69.1163047 C274.479146,70.5615249 276.293538,71.2841242 279.006689,71.2841242 C280.091949,71.2841242 281.278935,71.163691 282.567682,70.922821 C283.856428,70.6819509 284.873845,70.2862418 285.619961,69.7356817 L285.619961,80.1618614 C284.331215,80.7812415 282.754219,81.2113601 280.888928,81.4522301 C279.023637,81.6931002 277.378814,81.8135334 275.954409,81.8135334 C272.698628,81.8135334 270.036389,81.4522338 267.967611,80.7296236 C265.898834,80.0070135 264.270968,78.9059098 263.083964,77.4262796 C261.896961,75.9466493 261.083027,74.1057416 260.64214,71.9035012 C260.201253,69.7012608 259.980813,67.1549586 259.980813,64.2645181 L259.980813,41.5540277 L249.908291,41.5540277 Z M302.856363,60.135338 C303.263336,63.8516187 304.687719,66.7420158 307.129555,68.8066162 C309.571391,70.8712165 312.521898,71.9035012 315.981165,71.9035012 C319.03346,71.9035012 321.593958,71.2669257 323.662735,69.9937554 C325.731513,68.7205852 327.545905,67.1205439 329.105967,65.1935836 L337.855835,71.9035012 C335.007027,75.4821418 331.819122,78.0284441 328.292026,79.5424844 C324.76493,81.0565246 321.068317,81.8135334 317.202077,81.8135334 C313.539323,81.8135334 310.080108,81.1941626 306.824327,79.9554024 C303.568546,78.7166422 300.753694,76.9617582 298.379687,74.6906978 C296.00568,72.4196374 294.123459,69.6840829 292.73297,66.4839524 C291.34248,63.2838218 290.647245,59.7224396 290.647245,55.7996989 C290.647245,51.8769583 291.34248,48.3155761 292.73297,45.1154455 C294.123459,41.9153149 296.00568,39.1797605 298.379687,36.9087001 C300.753694,34.6376397 303.568546,32.8827557 306.824327,31.6439955 C310.080108,30.4052353 313.539323,29.7858645 317.202077,29.7858645 C320.593516,29.7858645 323.696636,30.3880305 326.51153,31.5923808 C329.326424,32.796731 331.734309,34.5344102 333.735258,36.8054706 C335.736207,39.076531 337.296245,41.8809044 338.41542,45.218675 C339.534595,48.5564456 340.094174,52.3931037 340.094174,56.7287645 L340.094174,60.135338 L302.856363,60.135338 Z M327.885055,50.8446828 C327.817227,47.1972222 326.698069,44.3240298 324.527548,42.2250194 C322.357027,40.1260091 319.338692,39.0765196 315.472452,39.0765196 C311.809698,39.0765196 308.910062,40.1432138 306.773455,42.2766342 C304.636849,44.4100546 303.331165,47.2660422 302.856363,50.8446828 L327.885055,50.8446828 Z M349.394649,31.0246185 L361.603767,31.0246185 L361.603767,38.8700606 L361.807252,38.8700606 C363.163828,35.9796201 365.096919,33.7430033 367.606583,32.160143 C370.116248,30.5772827 372.998928,29.7858645 376.254709,29.7858645 C377.000825,29.7858645 377.729974,29.8546835 378.442176,29.9923235 C379.154378,30.1299635 379.883526,30.302011 380.629643,30.508471 L380.629643,42.4830932 C379.612211,42.2078132 378.611752,41.9841515 377.628234,41.8121014 C376.644717,41.6400514 375.678172,41.5540277 374.728569,41.5540277 C371.87976,41.5540277 369.590574,42.0873748 367.86094,43.154085 C366.131306,44.2207951 364.808665,45.442332 363.892977,46.8187323 C362.977288,48.1951325 362.366838,49.5715121 362.061609,50.9479124 C361.756379,52.3243126 361.603767,53.3565973 361.603767,54.0447974 L361.603767,80.5747794 L349.394649,80.5747794 L349.394649,31.0246185 Z M418.41806,45.8896668 C416.993656,44.3756265 415.501445,43.1712944 413.941384,42.2766342 C412.381322,41.381974 410.78737,40.9346507 409.159479,40.9346507 C406.921129,40.9346507 404.920211,41.3475646 403.156663,42.1734047 C401.393115,42.9992448 399.883947,44.1003485 398.629115,45.4767488 C397.374282,46.853149 396.424694,48.4359855 395.78032,50.2253058 C395.135947,52.0146261 394.813765,53.8727386 394.813765,55.7996989 C394.813765,57.7266593 395.135947,59.5847717 395.78032,61.374092 C396.424694,63.1634123 397.374282,64.7462489 398.629115,66.1226491 C399.883947,67.4990494 401.393115,68.600153 403.156663,69.4259932 C404.920211,70.2518333 406.921129,70.6647472 409.159479,70.6647472 C411.058685,70.6647472 412.822206,70.2690381 414.450097,69.4776079 C416.077987,68.6861778 417.468456,67.5334599 418.621546,66.0194196 L426.760958,74.8971568 C425.54004,76.135917 424.132614,77.2026112 422.538638,78.0972713 C420.944661,78.9919315 419.333752,79.7145308 417.705862,80.2650909 C416.077971,80.815651 414.517933,81.2113601 413.0257,81.4522301 C411.533467,81.6931002 410.244739,81.8135334 409.159479,81.8135334 C405.496725,81.8135334 402.03751,81.1941626 398.781729,79.9554024 C395.525948,78.7166422 392.711096,76.9617582 390.337089,74.6906978 C387.963082,72.4196374 386.080861,69.6840829 384.690371,66.4839524 C383.299882,63.2838218 382.604647,59.7224396 382.604647,55.7996989 C382.604647,51.8769583 383.299882,48.3155761 384.690371,45.1154455 C386.080861,41.9153149 387.963082,39.1797605 390.337089,36.9087001 C392.711096,34.6376397 395.525948,32.8827557 398.781729,31.6439955 C402.03751,30.4052353 405.496725,29.7858645 409.159479,29.7858645 C412.279603,29.7858645 415.416636,30.3880305 418.570674,31.5923808 C421.724712,32.796731 424.488693,34.7064577 426.8627,37.3216181 L418.41806,45.8896668 Z M476.555008,80.5747794 L464.956346,80.5747794 L464.956346,72.6261077 L464.75286,72.6261077 C463.599771,75.1036282 461.83625,77.2542213 459.462243,79.0779516 C457.088236,80.9016819 453.866417,81.8135334 449.796691,81.8135334 C446.54091,81.8135334 443.776929,81.2801863 441.504665,80.2134761 C439.232401,79.1467659 437.384095,77.7015674 435.95969,75.877837 C434.535286,74.0541067 433.51787,71.9723326 432.907411,69.6324522 C432.296952,67.2925718 431.991727,64.849498 431.991727,62.3031576 L431.991727,31.0246185 L444.200845,31.0246185 L444.200845,56.1093874 C444.200845,57.4857877 444.268673,59.01701 444.40433,60.7031003 C444.539988,62.3891906 444.896084,63.9720271 445.472628,65.4516574 C446.049173,66.9312876 446.930934,68.1700293 448.117937,69.1679194 C449.304941,70.1658096 450.983678,70.6647472 453.154198,70.6647472 C455.189061,70.6647472 456.901712,70.3206523 458.292202,69.6324522 C459.682692,68.9442521 460.835764,68.0151958 461.751452,66.8452556 C462.667141,65.6753154 463.328461,64.3333453 463.735434,62.8193051 C464.142407,61.3052648 464.34589,59.7224283 464.34589,58.070748 L464.34589,31.0246185 L476.555008,31.0246185 L476.555008,80.5747794 Z M488.297307,31.0246185 L499.895969,31.0246185 L499.895969,38.4571426 L500.099454,38.4571426 C501.863002,35.4290621 504.236974,33.2268548 507.22144,31.8504545 C510.205906,30.4740543 513.427724,29.7858645 516.886992,29.7858645 C520.617574,29.7858645 523.975048,30.4568495 526.959514,31.7988398 C529.94398,33.14083 532.487521,34.9817377 534.590213,37.3216181 C536.692905,39.6614985 538.286857,42.4142577 539.372118,45.5799783 C540.457378,48.7456988 541,52.1522383 541,55.7996989 C541,59.4471596 540.423464,62.8536991 539.270375,66.0194196 C538.117286,69.1851402 536.506377,71.9378994 534.437599,74.2777798 C532.368821,76.6176602 529.876151,78.4585679 526.959514,79.8005581 C524.042877,81.1425483 520.854972,81.8135334 517.395705,81.8135334 C515.089527,81.8135334 513.054694,81.572667 511.291146,81.0909269 C509.527598,80.6091868 507.96756,79.989816 506.610984,79.2327959 C505.254409,78.4757757 504.101337,77.6671527 503.151734,76.8069026 C502.202131,75.9466524 501.422112,75.1036199 500.811653,74.2777798 L500.506425,74.2777798 L500.506425,104.111106 L488.297307,104.111106 L488.297307,31.0246185 Z M528.790882,55.7996989 C528.790882,53.8727386 528.4687,52.0146261 527.824327,50.2253058 C527.179953,48.4359855 526.230365,46.853149 524.975533,45.4767488 C523.7207,44.1003485 522.211533,42.9992448 520.447985,42.1734047 C518.684436,41.3475646 516.683518,40.9346507 514.445168,40.9346507 C512.206819,40.9346507 510.2059,41.3475646 508.442352,42.1734047 C506.678804,42.9992448 505.169636,44.1003485 503.914804,45.4767488 C502.659971,46.853149 501.710383,48.4359855 501.06601,50.2253058 C500.421636,52.0146261 500.099454,53.8727386 500.099454,55.7996989 C500.099454,57.7266593 500.421636,59.5847717 501.06601,61.374092 C501.710383,63.1634123 502.659971,64.7462489 503.914804,66.1226491 C505.169636,67.4990494 506.678804,68.600153 508.442352,69.4259932 C510.2059,70.2518333 512.206819,70.6647472 514.445168,70.6647472 C516.683518,70.6647472 518.684436,70.2518333 520.447985,69.4259932 C522.211533,68.600153 523.7207,67.4990494 524.975533,66.1226491 C526.230365,64.7462489 527.179953,63.1634123 527.824327,61.374092 C528.4687,59.5847717 528.790882,57.7266593 528.790882,55.7996989 Z" id="Buttercup" fill="#787878"></path>
            </g>
        </g>
    </g>
</svg>

<svg xmlns="http://www.w3.org/2000/svg" width="541" height="105" viewBox="0 0 541 105"><g fill="none" fill-rule="evenodd"><path fill="#24B5AB" d="M76 61.886c0 15.19-12.316 27.504-27.505 27.504h-30.4C8.102 89.39 0 81.288 0 71.293V25.695C0 11.505 11.507 0 25.693 0h3.624C43.507 0 55.01 11.5 55.01 25.695v9.462C67.056 38.082 76 48.937 76 61.887zM19.05 34.743c-5.524 0-10.002-4.47-10.002-8.686 0-9.193 7.454-16.647 16.645-16.647h3.624c9.194 0 16.645 7.45 16.645 16.647v4.3c0 .254 0 0 0 0 0 2.422-4.47 4.386-10.002 4.386H19.05zm14.245 21.132c0 2.786-1.377 3.427-1.377 3.427-.75.813-1.428 2.29-1.428 3.392v6.157c0 1.55-1.258 2.81-2.804 2.81-1.55 0-2.805-1.26-2.805-2.8V62.7c0-1.09-.63-2.617-1.41-3.383 0 0-1.38-.65-1.38-3.437 0-3.077 2.51-5.57 5.61-5.57 3.1 0 5.61 2.493 5.61 5.57z"/><path fill="#787878" d="M99 7.488h28.08c2.714 0 5.393.327 8.04.98 2.644.655 5 1.72 7.07 3.2 2.07 1.48 3.747 3.39 5.036 5.73 1.29 2.34 1.933 5.162 1.933 8.465 0 4.13-1.16 7.536-3.46 10.22-2.31 2.684-5.33 4.61-9.06 5.78v.207c2.24.275 4.32.912 6.25 1.91 1.93.998 3.58 2.27 4.93 3.82 1.35 1.548 2.42 3.337 3.2 5.367.78 2.03 1.17 4.216 1.17 6.555 0 3.992-.78 7.312-2.34 9.962-1.56 2.65-3.61 4.783-6.16 6.4-2.54 1.618-5.46 2.77-8.75 3.458-3.29.69-6.63 1.033-10.02 1.033H99V7.488zm12.82 29.73h11.7c4.273 0 7.478-.843 9.615-2.53 2.136-1.685 3.205-3.904 3.205-6.657 0-3.16-1.103-5.52-3.307-7.07-2.205-1.55-5.75-2.32-10.632-2.32h-10.58v18.58zm0 32.208h11.802c1.628 0 3.374-.103 5.24-.31 1.865-.206 3.577-.688 5.137-1.445 1.56-.75 2.84-1.84 3.86-3.25 1.01-1.41 1.52-3.32 1.52-5.73 0-3.85-1.24-6.53-3.72-8.05-2.48-1.51-6.33-2.27-11.55-2.27H111.8v21.06zm94.46 11.15h-11.6v-7.95h-.203c-1.154 2.478-2.917 4.628-5.29 6.452-2.375 1.824-5.597 2.736-9.667 2.736-3.255 0-6.02-.534-8.292-1.6-2.272-1.067-4.12-2.512-5.545-4.336-1.424-1.824-2.44-3.906-3.052-6.246-.61-2.34-.91-4.783-.91-7.33V31.026h12.21V56.11c0 1.376.07 2.907.21 4.593s.49 3.27 1.07 4.75c.58 1.478 1.46 2.717 2.65 3.715 1.19.998 2.87 1.497 5.04 1.497 2.04 0 3.75-.344 5.14-1.033 1.39-.688 2.55-1.617 3.46-2.787.92-1.17 1.58-2.512 1.99-4.026.405-1.52.61-3.1.61-4.75V31.02h12.21v49.55zm6.043-39.022v-10.53h10.073V16.677h12.21v14.35h13.43v10.528h-13.43v21.678c0 2.478.457 4.44 1.373 5.884.91 1.446 2.73 2.168 5.44 2.168 1.08 0 2.27-.12 3.56-.36 1.29-.242 2.3-.638 3.05-1.188v10.426c-1.29.62-2.87 1.05-4.73 1.29-1.87.24-3.51.362-4.94.362-3.26 0-5.92-.362-7.99-1.084-2.07-.72-3.7-1.82-4.89-3.3-1.19-1.48-2-3.32-2.45-5.52-.44-2.2-.66-4.75-.66-7.64V41.56H212.3zm37.585 0v-10.53h10.073V16.677h12.21v14.35h13.43v10.528h-13.43v21.678c0 2.478.46 4.44 1.38 5.884.92 1.446 2.73 2.168 5.45 2.168 1.09 0 2.27-.12 3.56-.36 1.29-.242 2.31-.638 3.06-1.188v10.426c-1.29.62-2.86 1.05-4.73 1.29-1.86.24-3.51.362-4.93.362-3.25 0-5.91-.362-7.98-1.084-2.07-.72-3.7-1.82-4.882-3.3-1.19-1.48-2-3.32-2.444-5.52-.44-2.2-.66-4.75-.66-7.64V41.56h-10.08zm52.948 18.58c.407 3.718 1.832 6.608 4.274 8.673 2.44 2.064 5.392 3.097 8.85 3.097 3.053 0 5.614-.637 7.683-1.91 2.07-1.273 3.883-2.873 5.443-4.8l8.75 6.71c-2.85 3.578-6.037 6.124-9.564 7.638-3.527 1.515-7.224 2.272-11.09 2.272-3.663 0-7.122-.62-10.378-1.86-3.255-1.237-6.07-2.992-8.444-5.263-2.374-2.27-4.257-5-5.647-8.2-1.39-3.2-2.086-6.76-2.086-10.68s.695-7.48 2.086-10.68c1.39-3.2 3.273-5.93 5.647-8.2 2.374-2.27 5.19-4.02 8.444-5.26 3.256-1.24 6.715-1.85 10.378-1.85 3.392 0 6.495.6 9.31 1.804 2.814 1.205 5.222 2.94 7.223 5.213 2 2.27 3.56 5.073 4.68 8.41 1.12 3.337 1.68 7.174 1.68 11.51v3.406h-37.24zm25.03-9.29c-.07-3.647-1.188-6.52-3.358-8.62-2.17-2.098-5.19-3.147-9.056-3.147-3.662 0-6.562 1.066-8.7 3.2-2.135 2.133-3.44 4.99-3.916 8.568h25.03zm21.51-19.82h12.208v7.846h.203c1.357-2.89 3.29-5.127 5.8-6.71 2.51-1.583 5.392-2.374 8.648-2.374.746 0 1.475.07 2.187.206.712.138 1.442.31 2.188.516v11.975c-1.018-.275-2.018-.5-3.002-.67-.983-.173-1.95-.26-2.9-.26-2.848 0-5.137.534-6.867 1.6-1.73 1.068-3.05 2.29-3.96 3.666-.91 1.37-1.52 2.75-1.83 4.12-.3 1.37-.46 2.41-.46 3.09v26.53H349.4V31.02zm69.022 14.866c-1.424-1.514-2.917-2.72-4.477-3.613-1.56-.895-3.15-1.342-4.78-1.342-2.24 0-4.24.413-6 1.238-1.76.826-3.27 1.927-4.53 3.304-1.25 1.376-2.2 2.96-2.85 4.748-.64 1.79-.96 3.648-.96 5.575s.32 3.785.97 5.574c.65 1.79 1.6 3.372 2.85 4.75 1.26 1.375 2.77 2.476 4.53 3.302 1.77.826 3.77 1.24 6.01 1.24 1.9 0 3.66-.397 5.29-1.188 1.63-.792 3.02-1.945 4.17-3.46l8.14 8.88c-1.22 1.238-2.63 2.305-4.22 3.2-1.59.894-3.2 1.617-4.83 2.167-1.62.55-3.18.946-4.68 1.187-1.49.24-2.78.362-3.86.362-3.66 0-7.12-.62-10.38-1.86-3.253-1.237-6.07-2.992-8.442-5.263-2.373-2.27-4.255-5-5.646-8.2-1.39-3.2-2.083-6.76-2.083-10.68s.693-7.48 2.083-10.68c1.39-3.2 3.275-5.93 5.65-8.2 2.374-2.27 5.19-4.02 8.445-5.26 3.257-1.24 6.716-1.85 10.38-1.85 3.12 0 6.254.6 9.41 1.804 3.152 1.205 5.92 3.114 8.29 5.73l-8.45 8.568zm58.137 34.685h-11.6v-7.95h-.202c-1.153 2.48-2.917 4.63-5.29 6.453-2.375 1.824-5.597 2.736-9.666 2.736-3.256 0-6.02-.534-8.292-1.6-2.273-1.067-4.12-2.512-5.545-4.336-1.425-1.824-2.442-3.906-3.053-6.246-.61-2.34-.915-4.783-.915-7.33V31.026h12.21V56.11c0 1.376.067 2.907.202 4.593.136 1.686.492 3.27 1.07 4.75.575 1.478 1.457 2.717 2.644 3.715 1.187.998 2.866 1.497 5.036 1.497 2.035 0 3.748-.344 5.138-1.033 1.39-.688 2.544-1.617 3.46-2.787.915-1.17 1.576-2.512 1.983-4.026.407-1.52.61-3.1.61-4.75V31.02h12.21v49.55zm11.742-49.55h11.6v7.432h.202c1.76-3.028 4.13-5.23 7.12-6.607 2.98-1.376 6.2-2.064 9.66-2.064 3.73 0 7.09.67 10.07 2.013 2.98 1.34 5.52 3.18 7.63 5.52 2.1 2.34 3.69 5.09 4.78 8.26 1.08 3.16 1.63 6.57 1.63 10.22 0 3.64-.58 7.05-1.73 10.22-1.16 3.16-2.77 5.91-4.83 8.25-2.07 2.34-4.56 4.18-7.48 5.52-2.92 1.34-6.11 2.01-9.57 2.01-2.31 0-4.34-.24-6.11-.73-1.76-.48-3.32-1.1-4.68-1.86-1.36-.76-2.51-1.57-3.46-2.43-.95-.86-1.73-1.706-2.34-2.53h-.31v29.84h-12.21V31.02zM528.79 55.8c0-1.927-.32-3.785-.966-5.575-.644-1.79-1.594-3.372-2.848-4.748-1.255-1.377-2.764-2.478-4.528-3.304-1.764-.825-3.764-1.238-6.003-1.238-2.238 0-4.24.413-6.003 1.238-1.763.826-3.272 1.927-4.527 3.304-1.255 1.376-2.205 2.96-2.85 4.748-.643 1.79-.966 3.648-.966 5.575s.32 3.785.96 5.574c.64 1.79 1.59 3.372 2.85 4.75 1.25 1.375 2.76 2.476 4.52 3.302 1.76.826 3.76 1.24 6 1.24s4.24-.414 6-1.24c1.76-.826 3.27-1.927 4.53-3.303 1.25-1.377 2.2-2.96 2.85-4.75.64-1.788.96-3.646.96-5.573z"/></g></svg>
